svgs/oneplus_camera.svg

<svg width="24" height="24" viewBox="0 0 24 24" fill="none" xmlns="http://www.w3.org/2000/svg">
<path fill-rule="evenodd" clip-rule="evenodd" d="M14.9673 3.32494C14.7779 3.11791 14.5102 3 14.2296 3H9.77044C9.48982 3 9.22211 3.11791 9.03268 3.32494L7.5 5H6V4.5C6 4.22386 5.77614 4 5.5 4H4.5C4.22386 4 4 4.22386 4 4.5V5C2.9 5 2 5.9 2 7V19C2 20.1 2.9 21 4 21H20C21.1 21 22 20.1 22 19V7C22 5.9 21.1 5 20 5H16.5L14.9673 3.32494ZM5 9C4.44772 9 4 8.55228 4 8C4 7.44772 4.44772 7 5 7C5.55228 7 6 7.44772 6 8C6 8.55228 5.55228 9 5 9ZM12 17C14.2091 17 16 15.2091 16 13C16 10.7909 14.2091 9 12 9C9.79086 9 8 10.7909 8 13C8 15.2091 9.79086 17 12 17ZM12 15.5C13.3807 15.5 14.5 14.3807 14.5 13C14.5 11.6193 13.3807 10.5 12 10.5C10.6193 10.5 9.5 11.6193 9.5 13C9.5 14.3807 10.6193 15.5 12 15.5Z" fill="#FFF1C0"/>
</svg>

<svg xmlns="http://www.w3.org/2000/svg" viewBox="0 0 24 24"><path fill-rule="evenodd" d="M14.967 3.325A1 1 0 0 0 14.23 3H9.77a1 1 0 0 0-.737.325L7.5 5H6v-.5a.5.5 0 0 0-.5-.5h-1a.5.5 0 0 0-.5.5V5c-1.1 0-2 .9-2 2v12c0 1.1.9 2 2 2h16c1.1 0 2-.9 2-2V7c0-1.1-.9-2-2-2h-3.5zM5 9a1 1 0 1 1 0-2 1 1 0 0 1 0 2m7 8a4 4 0 1 0 0-8 4 4 0 0 0 0 8m0-1.5a2.5 2.5 0 1 0 0-5 2.5 2.5 0 0 0 0 5"/></svg>
